Numix-Circle/48x48/apps/kspaceduel.svg

<?xml version="1.0" encoding="UTF-8" standalone="no"?>
<svg
   xmlns:dc="http://purl.org/dc/elements/1.1/"
   xmlns:cc="http://creativecommons.org/ns#"
   xmlns:rdf="http://www.w3.org/1999/02/22-rdf-syntax-ns#"
   xmlns:svg="http://www.w3.org/2000/svg"
   xmlns="http://www.w3.org/2000/svg"
   xmlns:sodipodi="http://sodipodi.sourceforge.net/DTD/sodipodi-0.dtd"
   xmlns:inkscape="http://www.inkscape.org/namespaces/inkscape"
   viewBox="0 0 48 48"
   id="svg2"
   version="1.1"
   inkscape:version="0.91 r13725"
   sodipodi:docname="kspaceduel.svg">
  <metadata
     id="metadata81">
    <rdf:RDF>
      <cc:Work
         rdf:about="">
        <dc:format>image/svg+xml</dc:format>
        <dc:type
           rdf:resource="http://purl.org/dc/dcmitype/StillImage" />
      </cc:Work>
    </rdf:RDF>
  </metadata>
  <sodipodi:namedview
     pagecolor="#ffffff"
     bordercolor="#666666"
     borderopacity="1"
     objecttolerance="10"
     gridtolerance="10"
     guidetolerance="10"
     inkscape:pageopacity="0"
     inkscape:pageshadow="2"
     inkscape:window-width="1366"
     inkscape:window-height="713"
     id="namedview79"
     showgrid="false"
     inkscape:zoom="1"
     inkscape:cx="32.087077"
     inkscape:cy="12.977437"
     inkscape:window-x="0"
     inkscape:window-y="28"
     inkscape:window-maximized="1"
     inkscape:current-layer="svg2">
    <inkscape:grid
       type="xygrid"
       id="grid4209" />
  </sodipodi:namedview>
  <defs
     id="defs4">
    <linearGradient
       id="linearGradient3764"
       x1="1"
       x2="47"
       gradientUnits="userSpaceOnUse"
       gradientTransform="matrix(0,-1,1,0,-1.5e-6,47.999998)">
      <stop
         stop-color="#575757"
         stop-opacity="1"
         id="stop7" />
      <stop
         offset="1"
         stop-color="#616161"
         stop-opacity="1"
         id="stop9" />
    </linearGradient>
    <clipPath
       id="clipPath-955080997">
      <g
         transform="translate(0,-1004.3622)"
         id="g12">
        <path
           d="m -24 13 c 0 1.105 -0.672 2 -1.5 2 -0.828 0 -1.5 -0.895 -1.5 -2 0 -1.105 0.672 -2 1.5 -2 0.828 0 1.5 0.895 1.5 2 z"
           transform="matrix(15.333333,0,0,11.5,414.99999,878.8622)"
           fill="#1890d0"
           id="path14" />
      </g>
    </clipPath>
    <clipPath
       id="clipPath-962724068">
      <g
         transform="translate(0,-1004.3622)"
         id="g17">
        <path
           d="m -24 13 c 0 1.105 -0.672 2 -1.5 2 -0.828 0 -1.5 -0.895 -1.5 -2 0 -1.105 0.672 -2 1.5 -2 0.828 0 1.5 0.895 1.5 2 z"
           transform="matrix(15.333333,0,0,11.5,414.99999,878.8622)"
           fill="#1890d0"
           id="path19" />
      </g>
    </clipPath>
  </defs>
  <g
     id="g21">
    <path
       d="m 36.31 5 c 5.859 4.062 9.688 10.831 9.688 18.5 c 0 12.426 -10.07 22.5 -22.5 22.5 c -7.669 0 -14.438 -3.828 -18.5 -9.688 c 1.037 1.822 2.306 3.499 3.781 4.969 c 4.085 3.712 9.514 5.969 15.469 5.969 c 12.703 0 23 -10.298 23 -23 c 0 -5.954 -2.256 -11.384 -5.969 -15.469 c -1.469 -1.475 -3.147 -2.744 -4.969 -3.781 z m 4.969 3.781 c 3.854 4.113 6.219 9.637 6.219 15.719 c 0 12.703 -10.297 23 -23 23 c -6.081 0 -11.606 -2.364 -15.719 -6.219 c 4.16 4.144 9.883 6.719 16.219 6.719 c 12.703 0 23 -10.298 23 -23 c 0 -6.335 -2.575 -12.06 -6.719 -16.219 z"
       opacity="0.05"
       id="path23" />
    <path
       d="m 41.28 8.781 c 3.712 4.085 5.969 9.514 5.969 15.469 c 0 12.703 -10.297 23 -23 23 c -5.954 0 -11.384 -2.256 -15.469 -5.969 c 4.113 3.854 9.637 6.219 15.719 6.219 c 12.703 0 23 -10.298 23 -23 c 0 -6.081 -2.364 -11.606 -6.219 -15.719 z"
       opacity="0.1"
       id="path25" />
    <path
       d="m 31.25 2.375 c 8.615 3.154 14.75 11.417 14.75 21.13 c 0 12.426 -10.07 22.5 -22.5 22.5 c -9.708 0 -17.971 -6.135 -21.12 -14.75 a 23 23 0 0 0 44.875 -7 a 23 23 0 0 0 -16 -21.875 z"
       opacity="0.2"
       id="path27" />
  </g>
  <g
     id="g29">
    <path
       d="m 24 1 c 12.703 0 23 10.297 23 23 c 0 12.703 -10.297 23 -23 23 -12.703 0 -23 -10.297 -23 -23 0 -12.703 10.297 -23 23 -23 z"
       fill="url(#linearGradient3764)"
       fill-opacity="1"
       id="path31" />
  </g>
  <g
     id="g33" />
  <g
     id="g35">
    <g
       clip-path="url(#clipPath-955080997)"
       id="g37">
      <g
         transform="translate(1,1)"
         id="g39">
        <g
           opacity="0.1"
           id="g41">
          <!-- color: #616161 -->
          <g
             id="g43">
            <path
               d="m 25.5 19.5 c 0 0.828 -0.672 1.5 -1.5 1.5 c -0.828 0 -1.5 -0.672 -1.5 -1.5 c 0 -0.828 0.672 -1.5 1.5 -1.5 c 0.828 0 1.5 0.672 1.5 1.5 m 0 0"
               fill="#000"
               stroke="none"
               fill-rule="nonzero"
               fill-opacity="1"
               id="path55" />
          </g>
        </g>
      </g>
    </g>
  </g>
  <g
     id="g57">
    <g
       clip-path="url(#clipPath-962724068)"
       id="g59">
      <!-- color: #616161 -->
      <g
         id="g61">
        <g
           id="g4241">
          <path
             style="fill:#000000;fill-opacity:0.10980392;fill-rule:nonzero;stroke:none"
             d="M 25.001953 12 C 23.850196 12.697271 23.019464 13.8172 22.265625 14.90625 L 22.261719 14.916016 C 20.586074 17.469037 19.531625 20.506245 19.683594 23.585938 C 19.675584 23.713886 19.746439 23.883631 19.605469 23.957031 C 19.097577 24.352779 18.593552 24.759235 18.097656 25.173828 C 17.242837 25.917715 16.832549 27.136366 17.0625 28.236328 C 17.347439 29.545569 17.652375 30.857858 17.945312 32.160156 C 18.074286 32.764192 18.805214 33.128761 19.371094 32.884766 L 22.203125 30.808594 C 23.009955 31.556449 23.832279 32 25.003906 32 C 26.175532 32 27.08949 31.453572 27.777344 30.791016 L 30.492188 32.796875 C 31.04607 33.23924 31.980659 32.919743 32.140625 32.234375 C 32.426565 30.885459 32.683276 29.549964 32.949219 28.208984 C 33.145177 27.146713 32.769579 25.995656 31.96875 25.263672 C 31.410868 24.786592 30.828506 24.329603 30.265625 23.853516 C 30.48058 20.662736 29.411738 17.489943 27.662109 14.847656 C 26.916267 13.78241 26.138712 12.678425 25.001953 12 z M 27.46875 32.701172 C 27.381422 32.700734 27.293094 32.720781 27.214844 32.769531 C 25.851469 33.624156 24.136813 33.613344 22.742188 32.792969 C 22.414188 32.581969 21.992 32.831656 22 33.222656 L 22 35.996094 C 21.996 36.398094 22.464344 36.543062 22.777344 36.289062 C 23.015344 36.078063 23.232078 35.871437 23.455078 35.648438 C 23.826078 36.355438 24.164344 37.052859 24.527344 37.755859 C 24.702344 38.083859 25.253781 38.082094 25.425781 37.746094 C 25.792781 37.043094 26.133187 36.351531 26.492188 35.644531 C 26.723188 35.863531 26.937781 36.074156 27.175781 36.285156 C 27.483781 36.535156 28.008 36.402094 28 35.996094 C 28.004 35.172094 28.004 34.017453 28 33.189453 C 27.991 32.905203 27.730734 32.702484 27.46875 32.701172 z "
             id="path4248" />
          <path
             sodipodi:nodetypes="ccccccccczcccccccc"
             style="fill:#a7bfcb;fill-opacity:1;fill-rule:nonzero;stroke:none"
             inkscape:connector-curvature="0"
             id="path69"
             d="m 21.260885,13.906119 c 0.753839,-1.08905 1.585663,-2.208848 2.73742,-2.906119 1.136759,0.678425 1.913594,1.782354 2.659436,2.8476 1.749629,2.642287 2.819403,5.815214 2.604448,9.005994 0.562881,0.476087 1.144758,0.93333 1.70264,1.41041 0.800829,0.731984 1.17575,1.88253 0.979792,2.944801 -0.265943,1.34098 -0.522889,2.677001 -0.808829,4.025917 -0.159966,0.685368 -1.093768,1.003751 -1.647651,0.561386 l -2.714424,-2.00553 C 26.085863,30.453134 25.171626,31 24,31 22.828373,31 22.005727,30.557278 21.198897,29.809423 l -2.831399,2.07496 c -0.56588,0.243995 -1.296726,-0.120014 -1.425699,-0.72405 -0.292938,-1.302298 -0.597873,-2.615507 -0.882812,-3.924748 -0.229951,-1.099962 0.179961,-2.316961 1.03478,-3.060848 0.495896,-0.414593 0.999789,-0.821251 1.507681,-1.216999 0.14097,-0.0734 0.06998,-0.243995 0.07799,-0.371944 -0.151969,-3.079692 0.901809,-6.117727 2.577454,-8.670748" />
          <path
             sodipodi:nodetypes="cccccccccccc"
             inkscape:connector-curvature="0"
             style="fill:#e7cc59;fill-opacity:1;fill-rule:nonzero;stroke:none"
             id="path71"
             d="m 21,32.2265 c -0.008,-0.391 0.414,-0.641 0.742,-0.43 1.394625,0.820375 3.109625,0.831625 4.473,-0.023 0.313,-0.195 0.773,0.039 0.785,0.418 0.004,0.828 0.004,1.9845 0,2.8085 0.008,0.406 -0.516,0.539 -0.824,0.289 -0.238,-0.211 -0.453,-0.422 -0.684,-0.641 -0.359,0.707 -0.699,1.399 -1.066,2.102 -0.172,0.336 -0.723,0.336 -0.898,0.008 -0.363,-0.703 -0.703,-1.399 -1.074,-2.106 -0.223,0.223 -0.438,0.43 -0.676,0.641 C 21.465,35.547 20.996,35.402 21,35" />
          <path
             d="M 24,15.999926 C 25,16 26.512559,19 26.5,22 c -0.597758,2.02584 -4.306378,2.16081 -5,0 0.0021,-3 1.5,-6 2.5,-6"
             id="path4237"
             inkscape:connector-curvature="0"
             style="fill:#b3eaf1;fill-opacity:1;fill-rule:nonzero;stroke:none"
             sodipodi:nodetypes="cccc" />
        </g>
      </g>
    </g>
  </g>
  <g
     id="g75">
    <path
       d="m 40.03 7.531 c 3.712 4.084 5.969 9.514 5.969 15.469 0 12.703 -10.297 23 -23 23 c -5.954 0 -11.384 -2.256 -15.469 -5.969 4.178 4.291 10.01 6.969 16.469 6.969 c 12.703 0 23 -10.298 23 -23 0 -6.462 -2.677 -12.291 -6.969 -16.469 z"
       opacity="0.1"
       id="path77" />
  </g>
</svg>

<svg xmlns="http://www.w3.org/2000/svg" viewBox="0 0 48 48"><defs><linearGradient id="linearGradient3764" x1="1" x2="47" gradientUnits="userSpaceOnUse" gradientTransform="matrix(0,-1,1,0,-1.5e-6,47.999998)"><stop stop-color="#575757" stop-opacity="1"/><stop offset="1" stop-color="#616161" stop-opacity="1"/></linearGradient><clipPath id="clipPath-955080997"><g transform="translate(0,-1004.3622)"><path d="m -24 13 c 0 1.105 -0.672 2 -1.5 2 -0.828 0 -1.5 -0.895 -1.5 -2 0 -1.105 0.672 -2 1.5 -2 0.828 0 1.5 0.895 1.5 2 z" transform="matrix(15.333333,0,0,11.5,414.99999,878.8622)" fill="#1890d0"/></g></clipPath><clipPath id="clipPath-962724068"><g transform="translate(0,-1004.3622)"><path d="m -24 13 c 0 1.105 -0.672 2 -1.5 2 -0.828 0 -1.5 -0.895 -1.5 -2 0 -1.105 0.672 -2 1.5 -2 0.828 0 1.5 0.895 1.5 2 z" transform="matrix(15.333333,0,0,11.5,414.99999,878.8622)" fill="#1890d0"/></g></clipPath></defs><g><path d="m 36.31 5 c 5.859 4.062 9.688 10.831 9.688 18.5 c 0 12.426 -10.07 22.5 -22.5 22.5 c -7.669 0 -14.438 -3.828 -18.5 -9.688 c 1.037 1.822 2.306 3.499 3.781 4.969 c 4.085 3.712 9.514 5.969 15.469 5.969 c 12.703 0 23 -10.298 23 -23 c 0 -5.954 -2.256 -11.384 -5.969 -15.469 c -1.469 -1.475 -3.147 -2.744 -4.969 -3.781 z m 4.969 3.781 c 3.854 4.113 6.219 9.637 6.219 15.719 c 0 12.703 -10.297 23 -23 23 c -6.081 0 -11.606 -2.364 -15.719 -6.219 c 4.16 4.144 9.883 6.719 16.219 6.719 c 12.703 0 23 -10.298 23 -23 c 0 -6.335 -2.575 -12.06 -6.719 -16.219 z" opacity="0.05"/><path d="m 41.28 8.781 c 3.712 4.085 5.969 9.514 5.969 15.469 c 0 12.703 -10.297 23 -23 23 c -5.954 0 -11.384 -2.256 -15.469 -5.969 c 4.113 3.854 9.637 6.219 15.719 6.219 c 12.703 0 23 -10.298 23 -23 c 0 -6.081 -2.364 -11.606 -6.219 -15.719 z" opacity="0.1"/><path d="m 31.25 2.375 c 8.615 3.154 14.75 11.417 14.75 21.13 c 0 12.426 -10.07 22.5 -22.5 22.5 c -9.708 0 -17.971 -6.135 -21.12 -14.75 a 23 23 0 0 0 44.875 -7 a 23 23 0 0 0 -16 -21.875 z" opacity="0.2"/></g><g><path d="m 24 1 c 12.703 0 23 10.297 23 23 c 0 12.703 -10.297 23 -23 23 -12.703 0 -23 -10.297 -23 -23 0 -12.703 10.297 -23 23 -23 z" fill="url(#linearGradient3764)" fill-opacity="1"/></g><g><g clip-path="url(#clipPath-955080997)"><g transform="translate(1,1)"><g opacity="0.1"><!-- color: #616161 --><g><path d="m 25.5 19.5 c 0 0.828 -0.672 1.5 -1.5 1.5 c -0.828 0 -1.5 -0.672 -1.5 -1.5 c 0 -0.828 0.672 -1.5 1.5 -1.5 c 0.828 0 1.5 0.672 1.5 1.5 m 0 0" fill="#000" stroke="none" fill-rule="nonzero" fill-opacity="1"/></g></g></g></g></g><g><g clip-path="url(#clipPath-962724068)"><!-- color: #616161 --><g><g><path d="m 25 12 c -1.152 0.697 -1.982 1.817 -2.736 2.906 l -0.004 0.001 c -1.676 2.553 -2.73 5.59 -2.578 8.67 c -0.008 0.128 0.063 0.298 -0.078 0.371 c -0.508 0.396 -1.012 0.802 -1.508 1.217 c -0.855 0.744 -1.265 1.963 -1.035 3.063 c 0.285 1.309 0.59 2.622 0.883 3.924 c 0.129 0.604 0.86 0.969 1.426 0.725 l 2.832 -2.076 c 0.807 0.748 1.629 1.191 2.801 1.191 c 1.172 0 2.086 -0.546 2.773 -1.209 l 2.715 2.01 c 0.554 0.442 1.488 0.123 1.648 -0.563 c 0.286 -1.349 0.543 -2.684 0.809 -4.03 c 0.196 -1.062 -0.18 -2.213 -0.98 -2.945 c -0.558 -0.477 -1.14 -0.934 -1.703 -1.41 c 0.215 -3.191 -0.854 -6.364 -2.604 -9.01 c -0.746 -1.065 -1.523 -2.169 -2.66 -2.848 z m 2.467 20.701 c -0.087 0 -0.176 0.02 -0.254 0.068 c -1.363 0.855 -3.078 0.844 -4.473 0.023 c -0.328 -0.211 -0.75 0.039 -0.742 0.43 l 0 2.773 c -0.004 0.402 0.464 0.547 0.777 0.293 c 0.238 -0.211 0.455 -0.418 0.678 -0.641 c 0.371 0.707 0.709 1.404 1.072 2.107 c 0.175 0.328 0.726 0.326 0.898 -0.001 c 0.367 -0.703 0.707 -1.395 1.066 -2.102 c 0.231 0.219 0.446 0.43 0.684 0.641 c 0.308 0.25 0.832 0.117 0.824 -0.289 c 0.004 -0.824 0.004 -1.979 0 -2.807 c -0.009 -0.284 -0.269 -0.487 -0.531 -0.488 z" fill="#000" fill-rule="nonzero" stroke="none" fill-opacity="0.11"/><path d="m 21.261 13.906 c 0.754 -1.089 1.586 -2.209 2.737 -2.906 1.137 0.678 1.914 1.782 2.659 2.848 1.75 2.642 2.819 5.815 2.604 9.01 0.563 0.476 1.145 0.933 1.703 1.41 0.801 0.732 1.176 1.883 0.98 2.945 -0.266 1.341 -0.523 2.677 -0.809 4.03 -0.16 0.685 -1.094 1 -1.648 0.561 l -2.714 -2.01 c -0.688 0.663 -1.602 1.209 -2.774 1.209 -1.172 0 -1.994 -0.443 -2.801 -1.191 l -2.831 2.075 c -0.566 0.244 -1.297 -0.12 -1.426 -0.724 -0.293 -1.302 -0.598 -2.616 -0.883 -3.925 -0.23 -1.1 0.18 -2.317 1.035 -3.061 0.496 -0.415 1 -0.821 1.508 -1.217 0.141 -0.073 0.07 -0.244 0.078 -0.372 -0.152 -3.08 0.902 -6.118 2.577 -8.671" fill="#a7bfcb" fill-rule="nonzero" stroke="none" fill-opacity="1"/><path d="m 21 32.23 c -0.008 -0.391 0.414 -0.641 0.742 -0.43 1.395 0.82 3.11 0.832 4.473 -0.023 0.313 -0.195 0.773 0.039 0.785 0.418 0.004 0.828 0.004 1.984 0 2.809 0.008 0.406 -0.516 0.539 -0.824 0.289 -0.238 -0.211 -0.453 -0.422 -0.684 -0.641 -0.359 0.707 -0.699 1.399 -1.066 2.102 -0.172 0.336 -0.723 0.336 -0.898 0.008 -0.363 -0.703 -0.703 -1.399 -1.074 -2.106 -0.223 0.223 -0.438 0.43 -0.676 0.641 c -0.313 0.254 -0.782 0.109 -0.778 -0.293" fill="#e7cc59" fill-rule="nonzero" stroke="none" fill-opacity="1"/><path d="m 24 16 c 1 0 2.513 3 2.5 6 c -0.598 2.026 -4.306 2.161 -5 0 0.002 -3 1.5 -6 2.5 -6" fill="#b3eaf1" fill-rule="nonzero" stroke="none" fill-opacity="1"/></g></g></g></g><g><path d="m 40.03 7.531 c 3.712 4.084 5.969 9.514 5.969 15.469 0 12.703 -10.297 23 -23 23 c -5.954 0 -11.384 -2.256 -15.469 -5.969 4.178 4.291 10.01 6.969 16.469 6.969 c 12.703 0 23 -10.298 23 -23 0 -6.462 -2.677 -12.291 -6.969 -16.469 z" opacity="0.1"/></g></svg>
